!!!OTL: Johnny Come Down to Hilo
!!!AGN: Windlass and Capstan Shanty
!!!AMD: Pentatonic
**kern
*clefG2
*k[b-]
*M2/4
*MM104
!! Solo
{8ff\
=1
16dd\LL
16dd\
16dd\
16dd\JJ
8cc\L
8ff\J
=2
8dd\L
8dd\J
8cc\L}
{16ff\L
16ff\JJ
=3
8dd\
8cc\
16a/L
16g/
16f/
16g/J
=4
8a/L
8f/J
8d/L
8c/J}
=5
!! Chorus
{16f/LL
16f/J
8f/J
8.f/L
16a/Jk
=6
8dd\
4.cc\}
=7
{4a/
4g/
=8
4.f/}
!! Solo
{8ff;\
=9
8dd\
4cc\
8ff\
=10
8dd\
4cc\}
!! Chorus
{8ff;\
=11
8dd\L
8cc\J
8a/L
16f/L
16g/JJ
=12
8a/L
8f/J
8d/L}
{8c/J
=13
16f/LL
16f/J
8f/J
8f/L
8a/J
=14
8dd\
4.cc\}
=15
{4a/
4g/
=16
4f/}
8r
==
*-
